static/assets/img/logos/brand/color-dropbox.svg

<svg fill="none" height="36" viewBox="0 0 180 36" width="180" xmlns="http://www.w3.org/2000/svg"><path d="m20.7942 6.65628-10.3971 6.64012 10.3971 6.6401-10.3971 6.6401-10.3971-6.6954 10.3971-6.6401-10.3971-6.58482 10.3971-6.6401057zm-10.4524 22.02302 10.3971-6.6401 10.3972 6.6401-10.3972 6.6401zm10.4524-8.7981 10.3972-6.6401-10.3972-6.58482 10.3419-6.6401057 10.3971 6.6401057-10.3971 6.64012 10.3971 6.6401-10.3971 6.6401z" fill="#0069fb"/><path d="m49.6628 6.6568h8.4062c5.3645 0 9.7888 3.09872 9.7888 10.1815v1.494c0 7.1381-4.1478 10.3475-9.6229 10.3475h-8.5721zm4.7009 3.9841v13.9995h3.5947c3.0417 0 5.088-1.992 5.088-6.4187v-1.1621c0-4.4267-2.1569-6.4187-5.2539-6.4187zm15.9828.2213h3.7606l.6084 4.1501c.7189-2.8221 2.544-4.3161 5.8622-4.3161h1.1614v4.7587h-1.9357c-3.8159 0-4.7561 1.3281-4.7561 5.0908v8.1895h-4.6455v-17.873zm12.3327 9.2962v-.4981c0-5.9761 3.816-9.2408 9.0146-9.2408 5.3091 0 9.0142 3.2647 9.0142 9.2408v.4981c0 5.8654-3.5945 9.0194-9.0142 9.0194-5.7516-.0553-9.0146-3.154-9.0146-9.0194zm13.273-.0554v-.4427c0-3.32-1.6592-5.312-4.3137-5.312-2.5993 0-4.3137 1.826-4.3137 5.312v.4427c0 3.2094 1.6591 5.0354 4.3137 5.0354 2.6545-.0553 4.3137-1.826 4.3137-5.0354zm7.1898-9.2408h3.871l.442 3.3754c.941-2.2687 2.931-3.8181 5.863-3.8181 4.534 0 7.521 3.2647 7.521 9.2962v.498c0 5.8654-3.318 8.9641-7.521 8.9641-2.821 0-4.757-1.2727-5.697-3.32v9.0195h-4.535zm12.996 9.2408v-.3873c0-3.5414-1.825-5.3121-4.258-5.3121-2.6 0-4.314 1.992-4.314 5.3121v.332c0 3.154 1.659 5.1461 4.258 5.1461 2.655-.0554 4.314-1.7707 4.314-5.0908zm11.559 5.3121-.388 3.2647h-3.981v-23.79369h4.534v9.13019c.996-2.3241 2.987-3.5968 5.807-3.5968 4.259.0554 7.411 2.9881 7.411 8.9088v.5534c0 5.9207-2.986 9.2961-7.521 9.2961-2.987-.0553-4.922-1.4387-5.862-3.7627zm8.627-5.5334v-.4427c0-3.2647-1.77-5.0907-4.258-5.0907-2.544 0-4.314 2.0473-4.314 5.146v.3874c0 3.32 1.714 5.2567 4.258 5.2567 2.71 0 4.314-1.7153 4.314-5.2567zm6.747.2767v-.4981c0-5.9761 3.816-9.2408 9.015-9.2408 5.309 0 9.014 3.2647 9.014 9.2408v.4981c0 5.8654-3.65 9.0194-9.014 9.0194-5.752-.0553-9.015-3.154-9.015-9.0194zm13.328-.0554v-.4427c0-3.32-1.659-5.312-4.313-5.312-2.6 0-4.314 1.826-4.314 5.312v.4427c0 3.2094 1.659 5.0354 4.314 5.0354 2.654-.0553 4.313-1.826 4.313-5.0354zm10.785-.664-6.25-8.5768h5.365l3.594 5.3674 3.65-5.3674h5.31l-6.36 8.5215 6.691 9.2961h-5.253l-4.093-5.9207-3.982 5.9207h-5.475z" fill="#000"/></svg>

<svg width="180" height="36" viewBox="0 0 180 36" fill="none" xmlns="http://www.w3.org/2000/svg">
<g clip-path="url(#clip0)">
<path d="M20.7942 6.65628L10.3971 13.2964L20.7942 19.9365L10.3971 26.5766L0 19.8812L10.3971 13.2411L0 6.65628L10.3971 0.0161743L20.7942 6.65628ZM10.3418 28.6793L20.7389 22.0392L31.1361 28.6793L20.7389 35.3194L10.3418 28.6793ZM20.7942 19.8812L31.1914 13.2411L20.7942 6.65628L31.1361 0.0161743L41.5332 6.65628L31.1361 13.2964L41.5332 19.9365L31.1361 26.5766L20.7942 19.8812Z" fill="#0069FB"/>
<path d="M49.6628 6.6568H58.069C63.4335 6.6568 67.8578 9.75552 67.8578 16.8383V18.3323C67.8578 25.4704 63.71 28.6798 58.2349 28.6798H49.6628V6.6568ZM54.3637 10.6409V24.6404H57.9584C61.0001 24.6404 63.0464 22.6484 63.0464 18.2217V17.0596C63.0464 12.6329 60.8895 10.6409 57.7925 10.6409H54.3637ZM70.3465 10.8622H74.1071L74.7155 15.0123C75.4344 12.1902 77.2595 10.6962 80.5777 10.6962H81.7391V15.4549H79.8034C75.9875 15.4549 75.0473 16.783 75.0473 20.5457V28.7352H70.4018V10.8622H70.3465ZM82.6792 20.1584V19.6603C82.6792 13.6842 86.4952 10.4195 91.6938 10.4195C97.0029 10.4195 100.708 13.6842 100.708 19.6603V20.1584C100.708 26.0238 97.1135 29.1778 91.6938 29.1778C85.9422 29.1225 82.6792 26.0238 82.6792 20.1584ZM95.9522 20.103V19.6603C95.9522 16.3403 94.293 14.3483 91.6385 14.3483C89.0392 14.3483 87.3248 16.1743 87.3248 19.6603V20.103C87.3248 23.3124 88.9839 25.1384 91.6385 25.1384C94.293 25.0831 95.9522 23.3124 95.9522 20.103ZM103.142 10.8622H107.013L107.455 14.2376C108.396 11.9689 110.386 10.4195 113.318 10.4195C117.852 10.4195 120.839 13.6842 120.839 19.7157V20.2137C120.839 26.0791 117.521 29.1778 113.318 29.1778C110.497 29.1778 108.561 27.9051 107.621 25.8578V34.8773H103.086L103.142 10.8622ZM116.138 20.103V19.7157C116.138 16.1743 114.313 14.4036 111.88 14.4036C109.28 14.4036 107.566 16.3956 107.566 19.7157V20.0477C107.566 23.2017 109.225 25.1938 111.824 25.1938C114.479 25.1384 116.138 23.4231 116.138 20.103ZM127.697 25.4151L127.309 28.6798H123.328V4.88611H127.862V14.0163C128.858 11.6922 130.849 10.4195 133.669 10.4195C137.928 10.4749 141.08 13.4076 141.08 19.3283V19.8817C141.08 25.8024 138.094 29.1778 133.559 29.1778C130.572 29.1225 128.637 27.7391 127.697 25.4151ZM136.324 19.8817V19.439C136.324 16.1743 134.554 14.3483 132.066 14.3483C129.522 14.3483 127.752 16.3956 127.752 19.4943V19.8817C127.752 23.2017 129.466 25.1384 132.01 25.1384C134.72 25.1384 136.324 23.4231 136.324 19.8817ZM143.071 20.1584V19.6603C143.071 13.6842 146.887 10.4195 152.086 10.4195C157.395 10.4195 161.1 13.6842 161.1 19.6603V20.1584C161.1 26.0238 157.45 29.1778 152.086 29.1778C146.334 29.1225 143.071 26.0238 143.071 20.1584ZM156.399 20.103V19.6603C156.399 16.3403 154.74 14.3483 152.086 14.3483C149.486 14.3483 147.772 16.1743 147.772 19.6603V20.103C147.772 23.3124 149.431 25.1384 152.086 25.1384C154.74 25.0831 156.399 23.3124 156.399 20.103ZM167.184 19.439L160.934 10.8622H166.299L169.893 16.2296L173.543 10.8622H178.853L172.493 19.3837L179.184 28.6798H173.931L169.838 22.7591L165.856 28.6798H160.381L167.184 19.439Z" fill="black"/>
</g>
<defs>
<clippath>
<rect width="179.184" height="36" fill="white"/>
</clippath>
</defs>
</svg>
